X: 7785
T:Schottische fr France
R:Schottische
O:France
M:4/4
K:G
GA|\
B3d cBAG | B3d cBAG | EFGB A3G|1 FGEF D2:|2 G6:|
|: Bc|\
d3d cBAG | d4 cBAG | EFGB A3G|1FGEFD2:|2G6:|
